X:1
T:Title
%%score { 1 | 2 }
L:1/8
Q:1/4=105
M:6/8
K:F
V:1 treble nm="Grand Piano"
V:2 bass 
V:1
 F3 A2 c | [Ec]2 [Ed] [Fc]3 | [CFA]3 [DFB]2 [DFB] | A6 | F3 A2 c | c2 d c3 | e3 [Ec]2 [Fd] | %7
w: James~Baker * *|||||||
 [Ec]6 | [Fc]3 [^Fc]2 [Fd] | [GB]2 [^FA] [GB]3 | [GB]3 [EB]2 [Ec] | A2 _A =A3 | A3 c2 [FA] | %13
w: ||||||
 [FB]2 [Fc] [Fd]3 | [Fc]3 [EG]2 [Ec] | [Fc]6 | [Fd]3 [DFB]2 [Fd] | [Fc]6 | [Fc]3 [EG]2 [EA] | %19
w: ||||||
 [CF]6 |] %20
w: |
V:2
 [F,A,C]3 [F,CF]2 [F,A,F] | [C,G,]2 [C,B,] [F,A,]3 | F,3 B,,2 B,, | [F,CF]6 | %4
 [F,A,C]3[K:treble] [F,CF]2 [A,CF] | [B,CE]2 [B,CE] [A,CF]3 | [G,CG]3[K:bass] [G,,G,]2 [G,,G,] | %7
 [C,G,]6 | [F,A,]3 [D,A,]2 [D,D] | [G,D]2 [D,D] [G,D]3 | [G,D]3 [C,C]2 [C,C] | %11
 [F,CF]2 [F,=B,F] [F,CF]3 | [F,CF]3 [F,A,F]2 [_E,C] | [D,B,]2 [C,A,] [B,,B,]3 | %14
 [C,A,]3 [C,C]2 [C,B,] | [F,A,]6 | [B,,B,]3 B,,2 [B,,B,] | [F,A,]6 | [C,A,]3 [C,B,]2 [C,C] | %19
 [F,A,]6 |] %20

